!!!COM: Palestrina, Giovanni Perluigi da
!!!OPR: Missa Brevis
!!!OTL: Agnus I
**kern	**kern	**kern	**kern
*Ibass	*Itenor	*Icalto	*Icant
!Bassus	!Tenor	!Altus	!Cantus
*clefF4	*clefGv2	*clefG2	*clefG2
*k[b-]	*k[b-]	*k[b-]	*k[b-]
*F:ion	*F:ion	*F:ion	*F:ion
*M4/2	*M4/2	*M4/2	*M4/2
=1	=1	=1	=1
0r	0r	0f	0r
=2	=2	=2	=2
0r	0c	1g	0r
.	.	1a	.
=3	=3	=3	=3
0r	1d	1.b-	0r
.	1e	.	.
.	.	4a	.
.	.	4g	.
=4	=4	=4	=4
0r	1.f	1.a	[0cc
.	4e	4g	.
.	4d	4f	.
=5	=5	=5	=5
0r	2e	2g	1cc]
.	2f	2a	.
.	1B-	2f	1dd
.	.	[2g	.
=6	=6	=6	=6
0r	1c	2g]	1ee
.	.	1a	.
.	[1d	.	[1ff
.	.	4f	.
.	.	4g	.
=7	=7	=7	=7
0r	2d]	4a	2ff]
.	.	4b-	.
.	4c	2.cc	4ee
.	4B-	.	4dd
.	2A	.	2ee
.	.	4b-	.
.	2F	[2a	2ff
=8	=8	=8	=8
1r	1B-	2a]	1dd
.	.	2g	.
[1F	2A	1a	1cc
.	[2c	.	.
=9	=9	=9	=9
1F]	2c]	0r	1a
.	1d	.	.
1G	.	.	1b-
.	[2e	.	.
=10	=10	=10	=10
1A	2e]	0r	1cc
.	2.f	.	.
[1B-	.	.	[1dd
.	4e	.	.
.	4d	.	.
.	4c	.	.
=11	=11	=11	=11
2B-]	2B-	0f	2dd]
4A	2c	.	4cc
4G	.	.	4b-
2A	2F	.	2cc
2B-	[2f	.	2dd
=12	=12	=12	=12
1G	2f]	1g	1b-
.	2e	.	.
2F	2d	1a	1r
2A	2c	.	.
=13	=13	=13	=13
1G	2d	1.b-	1r
.	2B-	.	.
2.F	1c	.	[1f
.	.	4a	.
4E	.	4g	.
=14	=14	=14	=14
1D	1r	2a	1f]
.	.	1f	.
2C	[1c	.	1g
2c	.	2e	.
=15	=15	=15	=15
2F	1c]	1f	1a
2A	.	.	.
[1G	1d	[1g	[1b-
=16	=16	=16	=16
1G]	1e	1g]	2b-]
.	.	.	4a
.	.	.	4g
1F	1f	1c	1a
=17	=17	=17	=17
1r	2B-	2d	1b-
.	1f	2B-	.
1C	.	1c	1g
.	2e	.	.
=18	=18	=18	=18
1F	2d	0r	2a
.	2c	.	1cc
2F	1d	.	.
2G	.	.	2b
=19	=19	=19	=19
1A	0c	2r	2cc
.	.	2c	2.a
1F	.	1f	.
.	.	.	4b-
.	.	.	4cc
.	.	.	4a
=20	=20	=20	=20
1B-	1r	2f	1dd
.	.	2g	.
2.A	1F	[1a	1cc
4G	.	.	.
=21	=21	=21	=21
2F	1c	2a]	1r
2E	.	2g	.
2F	2c	2a	1f
2D	2d	2f	.
=22	=22	=22	=22
2C	2e	1g	1cc
2c	2c	.	.
2A	1f	1r	2cc
2B-	.	.	2dd
=23	=23	=23	=23
2.c	1e	2r	1ee
.	.	2c	.
4B-	.	.	.
4A	2r	1f	[1cc
4G	.	.	.
[2F	[2A	.	.
=24	=24	=24	=24
2F]	4A]	2f	1cc]
.	4F	.	.
2E	1c	2g	.
1D	.	2a	[1ff
.	2B-	2f	.
=25	=25	=25	=25
1C	2A	1cc	2ff]
.	4G	.	2ee
.	4F	.	.
1r	2G	2b-	2dd
.	2A	2a	2cc
=26	=26	=26	=26
1r	1B-	2g	2.b-
.	.	1f	.
.	.	.	4a
1C	[1c	.	1g
.	.	2e	.
=27	=27	=27	=27
1F	2c]	1f	2a
.	2A	.	2cc
2F	1d	1r	2a
2G	.	.	2b-
=28	=28	=28	=28
1A	1c	2r	2.cc
.	.	2c	.
.	.	.	4b-
1F	2r	1f	4a
.	.	.	4f
.	2c	.	[2ff
=29	=29	=29	=29
1B-	2.d	2f	4ff]
.	.	.	4ee
.	.	2g	2dd
.	4e	.	.
2.A	4f	1a	2.cc
.	4g	.	.
.	[2a	.	.
4G	.	.	4b-
=30	=30	=30	=30
2A	4a]	1f	2cc
.	4g	.	.
2B-	1f	.	1dd
1G	.	[1b-	.
.	2e	.	4cc
.	.	.	4b-
=31	=31	=31	=31
[0F	2.f	2b-]	2dd
.	.	2a	2cc
.	4e	.	.
.	2d	1a	2r
.	4c	.	[2cc
.	4B-	.	.
=32	=32	=32	=32
1F]	1A	2r	2cc]
.	.	2f	2a
1r	1r	2g	2b-
.	.	2a	2cc
=33	=33	=33	=33
1B-	0r	2d	2.dd
.	.	1g	.
.	.	.	4cc
2G	.	.	2b-
2A	.	[2f	2a
=34	=34	=34	=34
2B-	2r	2f]	1g
2c	1c	2e	.
2F	.	1f	1a
2F	2A	.	.
=35	=35	=35	=35
2G	2B-	0r	0r
2A	2c	.	.
2D	2.d	.	.
[2G	.	.	.
.	4c	.	.
=36	=36	=36	=36
2G]	2B-	0r	2r
1F	2A	.	2cc
.	1G	.	2dd
2E	.	.	2ee
=37	=37	=37	=37
1F	2.F	2r	2a
.	.	2f	1dd
.	8G	.	.
.	8A	.	.
1r	2B-	2g	.
.	2A	2a	[2cc
=38	=38	=38	=38
1r	1G	2d	2cc]
.	.	1g	2b
2r	1A	.	2cc
2A	.	[2f	2a
=39	=39	=39	=39
2B-	0r	2f]	1g
2c	.	2e	.
2F	.	2.f	2r
[2B-	.	.	2f
.	.	4e	.
=40	=40	=40	=40
2B-]	2r	2d	2g
1A	2e	2c	2a
.	2f	1B-	2d
2G	2g	.	[2dd
=41	=41	=41	=41
1A	2e	1A	2dd]
.	2f	.	1cc
1r	1d	2r	.
.	.	2f	2b
=42	=42	=42	=42
2r	1c	2g	2cc
2F	.	2a	2a
2G	2r	2d	2b-
2A	2c	[2a	2cc
=43	=43	=43	=43
2D	1d	4a]	2f
.	.	4f	.
1G	.	2g	1b-
.	2B-	2d	.
[2F	[2c	[2f	[2a
=44	=44	=44	=44
2F]	4c]	4f]	4a]
.	4B-	4e	4f
2E	2G	2c	2.g
2D	2A	1d	.
.	.	.	4f
2BB-	2B-	.	[2f
=45	=45	=45	=45
0C	0G	1c	2f]
.	.	.	4e
.	.	.	4d
.	.	1c	1e
=46	=46	=46	=46
[0F	[0F	[0c	[0f
=47	=47	=47	=47
0F]	0F]	0c]	0f]
==	==	==	==
*-	*-	*-	*-
!!!CDT: 1525/^1526/-1594/2/2
!!!OCY: Italia
!!!AGN: Mass (Free)
!!!AST: renaissance, vocal
!!!ASW: Motet 1532 (Penet)
!!!PWK: Masses, Book 3
!!!RNB: Cadence finals: C
!!!YOR: Le Opere Complete, v. 6, p. 62
!!!YOO: Rome, Italy: Fratelli Scalera
!!!END: 1992//
!!!EED: John Miller
!!!YEC: Copyright 2000, John Miller
!!!YEN: United States of America
!!!YEM: Rights to all derivative electronic formats reserved.
!!!YEM: Refer to licensing agreement for further details.
!!!YEM: This file must be accompanied by the licensing agreement.
!!!YEM: A copy of the licensing agreement may be found at http://www.music-cog.ohio-state.edu/HumdrumDatabases/Palestrina/license.txt
!!!EMD: converted to Humdrum by Bret Aarden
